X: 1
T: Hoch Hey Johnnie Lad
R: Reel
B: The Athole Collection
M: C|
L: 1/8
K: A
|: "A"A3c "(E7)"BABc | "A"AFEF "E7"B{B}BB2 | "A"A3c "Bm"BABc | "E7"AFEF "A"A{A}AA2 :|
[| "A"e{f}gac "(E7)"BABc | "A"e{f}gae "D"f{f}ff2 | "A"e{f}gac "E7"BABc | "E7"AFEF "A"A{A}AA2 ||
[| "A"e{f}gac "(E7)"BABc | "A"e{f}gae "D"f{f}ff2 | "A"efec "Bm"BABc | "E7"AFEF "A"A{A}AA2 |]
